teeny/solid/power.svg

<svg width="15" height="15" viewBox="0 0 15 15" fill="none" xmlns="http://www.w3.org/2000/svg">
<path fill-rule="evenodd" clip-rule="evenodd" d="M8.00024 0V9H7.00024V0H8.00024ZM12.3873 1.79159L12.7447 2.14129C14.1345 3.50125 15 5.39628 15 7.49548C15 11.6345 11.6437 15 7.5 15C3.35837 15 0 11.6346 0 7.49548C0 5.39135 0.877013 3.49961 2.26871 2.14089L2.62648 1.7916L3.32506 2.50714L2.96729 2.85642C1.75699 4.03804 1 5.67618 1 7.49548C1 11.0833 3.91163 14 7.5 14C11.0903 14 14 11.0834 14 7.49548C14 5.67725 13.2515 4.03641 12.0453 2.85602L11.6879 2.50632L12.3873 1.79159Z" fill="black"/>
</svg>

<svg viewBox="0 0 15 15" xmlns="http://www.w3.org/2000/svg"><path fill-rule="evenodd" d="M8 0v9H7V0h1Zm4.38 1.79l.35.34c1.38 1.35 2.25 3.25 2.25 5.35 0 4.13-3.36 7.5-7.5 7.5 -4.15 0-7.5-3.37-7.5-7.51 0-2.11.87-4 2.26-5.36l.35-.35 .69.71 -.36.34C1.7 3.99.95 5.62.95 7.44c0 3.58 2.91 6.5 6.5 6.5s6.5-2.92 6.5-6.51c0-1.82-.75-3.46-1.96-4.64l-.36-.35 .69-.72Z"/></svg>
